covers/svg/cover-redwoodjs.svg

<svg xmlns="http://www.w3.org/2000/svg" width="1280" height="640" fill="none"><path fill="#EDEFF3" d="M0 0h1280v640H0z"/><path fill="#1A1A1A" d="M1139.65 596h-9.85v-1.699l6.55-9.153h-6.15v-2.121h9.26v1.875l-6.42 8.977h6.61zm7.97-13.219c1.16 0 2.15.239 2.98.715.83.477 1.46 1.152 1.91 2.027.44.875.67 1.922.67 3.141v1.477h-8.66c.03 1.257.36 2.226 1 2.906.65.68 1.56 1.019 2.72 1.019.83 0 1.57-.078 2.23-.234.66-.164 1.35-.402 2.05-.715v2.238q-.975.458-1.98.668c-.67.141-1.48.211-2.42.211q-1.905 0-3.36-.738c-.96-.5-1.71-1.242-2.26-2.226q-.81-1.478-.81-3.668c0-1.454.25-2.688.74-3.704q.735-1.523 2.07-2.32t3.12-.797m0 2.074c-.87 0-1.57.282-2.11.844-.53.563-.84 1.387-.94 2.473h5.91q-.015-.973-.33-1.723c-.2-.5-.51-.89-.94-1.172q-.615-.422-1.59-.422m15.24-2.074c.21 0 .45.012.71.035s.48.055.67.094l-.26 2.578a3.4 3.4 0 0 0-.61-.105 6 6 0 0 0-.63-.035q-.735 0-1.41.246c-.44.156-.84.398-1.18.726-.35.321-.61.723-.81 1.207s-.29 1.047-.29 1.688V596h-2.77v-12.973h2.16l.37 2.285h.13q.39-.69.96-1.265c.39-.383.82-.688 1.31-.914a3.8 3.8 0 0 1 1.65-.352m15.26 6.703q0 1.618-.42 2.871-.42 1.254-1.23 2.122a5.4 5.4 0 0 1-1.94 1.312c-.76.297-1.62.445-2.57.445-.89 0-1.71-.148-2.45-.445a5.5 5.5 0 0 1-1.93-1.312q-.81-.868-1.26-2.122c-.29-.835-.44-1.793-.44-2.871 0-1.429.24-2.64.74-3.632q.75-1.5 2.13-2.286c.92-.523 2.02-.785 3.29-.785 1.2 0 2.25.262 3.17.785.91.524 1.63 1.286 2.14 2.286.52 1 .77 2.21.77 3.632m-9.41 0c0 .946.12 1.754.34 2.426q.36 1.008 1.08 1.547c.49.352 1.11.527 1.88.527.76 0 1.39-.175 1.87-.527.49-.359.84-.875 1.07-1.547s.34-1.48.34-2.426c0-.945-.11-1.746-.34-2.402-.23-.664-.58-1.168-1.07-1.512-.48-.351-1.11-.527-1.88-.527-1.14 0-1.98.383-2.5 1.148-.52.766-.79 1.864-.79 3.293m19.24-6.703c1.53 0 2.77.563 3.7 1.688.94 1.125 1.4 2.797 1.4 5.015 0 1.469-.21 2.707-.65 3.715-.43 1-1.04 1.758-1.82 2.274q-1.155.76-2.7.761c-.66 0-1.23-.086-1.72-.257a4.4 4.4 0 0 1-1.24-.668 5 5 0 0 1-.87-.914h-.16c.04.312.07.66.11 1.043.04.374.05.718.05 1.031v5.285h-2.76v-18.727h2.25l.39 1.793h.12c.25-.367.54-.707.88-1.019.36-.313.78-.559 1.27-.739.5-.187 1.08-.281 1.75-.281m-.74 2.25q-1.14 0-1.83.457c-.45.297-.79.746-1 1.348q-.3.902-.33 2.262v.386q0 1.442.3 2.45.3.995.99 1.523c.47.344 1.11.516 1.9.516.67 0 1.23-.184 1.67-.551q.66-.551.99-1.57t.33-2.403q0-2.097-.75-3.258c-.49-.773-1.25-1.16-2.27-1.16m17.75 7.266c0 .851-.21 1.57-.62 2.156s-1.02 1.031-1.82 1.336c-.79.297-1.75.445-2.9.445-.91 0-1.69-.066-2.35-.199a8 8 0 0 1-1.84-.586v-2.379c.62.289 1.31.539 2.08.75q1.155.317 2.19.317c.91 0 1.56-.141 1.96-.422.39-.289.59-.672.59-1.149q0-.421-.24-.75c-.16-.226-.46-.457-.89-.691-.43-.242-1.07-.531-1.9-.867-.82-.328-1.51-.656-2.08-.985-.56-.328-.98-.722-1.27-1.183-.29-.469-.44-1.067-.44-1.793 0-1.149.46-2.02 1.36-2.613.92-.602 2.12-.903 3.62-.903q1.2 0 2.25.246c.72.157 1.41.387 2.09.692l-.87 2.074q-.87-.387-1.77-.633a6.3 6.3 0 0 0-1.79-.258c-.71 0-1.25.11-1.63.328-.37.219-.55.532-.55.938q0 .457.27.773.27.317.93.633c.44.211 1.06.473 1.85.785.77.297 1.44.61 2 .938.57.32 1.01.715 1.31 1.183.31.469.46 1.075.46 1.817m2.58 2.25c0-.641.16-1.09.49-1.348.34-.265.74-.398 1.22-.398s.88.133 1.22.398q.51.387.51 1.348 0 .938-.51 1.359c-.34.274-.74.41-1.22.41s-.88-.136-1.22-.41c-.33-.281-.49-.734-.49-1.359m9.74-11.52V596h-2.76v-12.973zm-1.36-4.968c.42 0 .78.113 1.09.339s.47.618.47 1.172c0 .547-.16.938-.47 1.172-.31.227-.67.34-1.09.34-.44 0-.81-.113-1.12-.34-.29-.234-.44-.625-.44-1.172 0-.554.15-.945.44-1.172.31-.226.68-.339 1.12-.339m16.79 11.425q0 1.618-.42 2.871-.42 1.254-1.23 2.122a5.4 5.4 0 0 1-1.95 1.312c-.75.297-1.61.445-2.56.445-.89 0-1.71-.148-2.45-.445a5.7 5.7 0 0 1-1.94-1.312c-.54-.579-.95-1.286-1.25-2.122q-.45-1.253-.45-2.871c0-1.429.25-2.64.74-3.632.5-1 1.21-1.762 2.14-2.286.92-.523 2.02-.785 3.29-.785 1.19 0 2.25.262 3.16.785.92.524 1.63 1.286 2.15 2.286.51 1 .77 2.21.77 3.632m-9.41 0c0 .946.11 1.754.34 2.426.24.672.59 1.188 1.08 1.547.48.352 1.11.527 1.87.527.77 0 1.39-.175 1.88-.527.48-.359.84-.875 1.07-1.547.22-.672.34-1.48.34-2.426 0-.945-.12-1.746-.34-2.402-.23-.664-.59-1.168-1.07-1.512-.49-.351-1.11-.527-1.89-.527q-1.71 0-2.49 1.148c-.53.766-.79 1.864-.79 3.293"/><path fill="#323232" d="m337.596 179.457-96.358 36.828A22.43 22.43 0 0 0 227 237.194v92.714l44.283-25.449v-52.131l74.217-28.475V178c-2.701.006-5.379.5-7.904 1.457M272.068 387.085l73.432-42.322v-51.121l-113.455 65.415a10.21 10.21 0 0 0-5.045 8.745v34.249a22.4 22.4 0 0 0 3.952 12.522 22.4 22.4 0 0 0 10.286 8.162l96.358 36.828a22.4 22.4 0 0 0 7.904 1.458v-45.853z"/><path fill="#1A1A1A" d="M459.291 279.066a9.36 9.36 0 0 0 4.709-8.24v-33.632a22.43 22.43 0 0 0-14.238-20.909l-96.414-36.828A22.4 22.4 0 0 0 345.5 178v45.853l72.871 28.027-72.871 41.985v51.122zM353.348 459.563l96.414-36.828A22.43 22.43 0 0 0 464 402.051v-93.667l-44.284 25.561v52.859L345.5 415.168v45.853a22.4 22.4 0 0 0 7.848-1.458"/><path fill="#939393" d="m670 295.553-6.043-6.043L640 313.467l-23.957-23.957-6.043 6.043 23.957 23.957L610 343.467l6.043 6.043L640 325.553l23.957 23.957 6.043-6.043-23.957-23.957z"/><path fill="#fff" fill-rule="evenodd" d="M920.048 195.072c-9.634 4.844-29.944 14.275-40.946 21.799s-9.634 14.533-14.451 19.377c-4.818 4.845-19.269 16.956-28.904 24.222-9.634 7.267-7.226 26.644-9.634 33.91-2.409 7.267-7.226 24.222-9.635 31.488-2.408 7.267 4.818 16.955 9.635 26.644s16.86 36.332 21.677 46.021 19.269 4.844 31.312 14.533 28.903 21.799 40.946 29.066 16.861 7.266 28.904 0c12.043-7.267 28.903-19.377 40.946-29.066s26.492-4.844 31.312-14.533 16.86-36.332 21.68-46.021c4.81-9.689 12.04-19.377 9.63-26.644s-7.22-24.221-9.63-31.488 0-26.643-9.64-33.91c-9.63-7.266-20.82-16.519-28.9-24.222-8.086-7.702-4.818-12.11-14.452-19.377s-31.312-16.955-40.946-21.799q-14.452-7.267-28.904 0" clip-rule="evenodd"/><path fill="#BF4722" fill-rule="evenodd" d="m886.03 237.097 45.079 30.771a6.4 6.4 0 0 0 3.426 1.069 6.17 6.17 0 0 0 3.425-1.069l45.114-30.875a6.16 6.16 0 0 0 2.544-5.506 6.14 6.14 0 0 0-3.4-5.015l-45.08-22.319a6.2 6.2 0 0 0-5.412 0l-44.943 22.319a6.14 6.14 0 0 0-3.432 5.092 6.16 6.16 0 0 0 2.679 5.533m63.817 40.43a6.22 6.22 0 0 0 2.672 5.105l36.138 24.7a6.066 6.066 0 0 0 7.502-.483l30.321-27.115a6.13 6.13 0 0 0 2.04-4.773 6.14 6.14 0 0 0-2.32-4.644l-28.944-23.147a6.13 6.13 0 0 0-7.263-.276l-37.474 25.631a6.22 6.22 0 0 0-2.672 5.002m-89.885 33.599a6.2 6.2 0 0 1 2.021 5.209 6.04 6.04 0 0 1-3.049 4.692l-21.581 12.936a6.1 6.1 0 0 1-6.942-.474 6.2 6.2 0 0 1-2.032-6.701l7.981-25.114a6.12 6.12 0 0 1 4.213-4.07 5.93 5.93 0 0 1 5.687 1.345zm117.049 2.622-39.016-26.7a6.13 6.13 0 0 0-6.852 0l-39.016 26.7a6.25 6.25 0 0 0-2.672 4.692 6.37 6.37 0 0 0 2.055 5.036l38.982 34.876a6.1 6.1 0 0 0 4.077 1.553 6.14 6.14 0 0 0 4.076-1.553l38.982-34.876a6.23 6.23 0 0 0 2.022-5.036 6.12 6.12 0 0 0-2.638-4.692m-104.067-6.899-30.281-27.115a6.3 6.3 0 0 1-2.055-4.864 6.08 6.08 0 0 1 2.295-4.656l28.945-23.286a6.2 6.2 0 0 1 7.296-.276l37.441 25.631a6.19 6.19 0 0 1 2.786 5.175 6.18 6.18 0 0 1-2.786 5.174l-36.105 24.7a6.13 6.13 0 0 1-7.536-.483m155.486 38.946-30.832-18.455a6.06 6.06 0 0 0-7.193.69l-37.681 33.634a6.2 6.2 0 0 0-1.973 5.674 6.17 6.17 0 0 0 3.754 4.675l52.275 21.181c.72.297 1.48.45 2.26.448a6.13 6.13 0 0 0 5.62-3.656l16.2-36.291c1.32-2.872.27-6.283-2.43-7.9m4.28-44.121 7.98 25.114h-.07a6.2 6.2 0 0 1-.9 5.516 6.13 6.13 0 0 1-4.96 2.522 6 6 0 0 1-3.11-.863l-21.62-12.936a6 6 0 0 1-2.94-4.692 6.1 6.1 0 0 1 2.02-5.209l13.7-12.211a6.11 6.11 0 0 1 5.69-1.346 6.23 6.23 0 0 1 4.21 4.105m-114.344 65.647a6.16 6.16 0 0 0-1.952-5.657l-37.68-33.634a6.065 6.065 0 0 0-7.194-.69l-30.83 18.455c-2.669 1.624-3.725 4.992-2.466 7.866l16.237 36.29c1.345 3.026 4.823 4.442 7.878 3.208l52.239-21.181a6.16 6.16 0 0 0 3.768-4.657m18.498 10.349 41.928 16.973a6.17 6.17 0 0 1 3.7 5.036 6.12 6.12 0 0 1-2.604 5.761l-41.962 29.15a6.07 6.07 0 0 1-3.426 1.103 6.17 6.17 0 0 1-3.425-1.103l-41.928-29.15a6.16 6.16 0 0 1-2.638-5.761 6.27 6.27 0 0 1 3.837-5.036l41.928-16.973a6.2 6.2 0 0 1 4.59 0" clip-rule="evenodd"/></svg>

<svg width="1280" height="640" viewBox="0 0 1280 640" fill="none" xmlns="http://www.w3.org/2000/svg">
<rect width="1280" height="640" fill="#EDEFF3"/>
<path d="M1139.65 596H1129.8V594.301L1136.35 585.148H1130.2V583.027H1139.46V584.902L1133.04 593.879H1139.65V596ZM1147.62 582.781C1148.78 582.781 1149.77 583.02 1150.6 583.496C1151.43 583.973 1152.06 584.648 1152.51 585.523C1152.95 586.398 1153.18 587.445 1153.18 588.664V590.141H1144.52C1144.55 591.398 1144.88 592.367 1145.52 593.047C1146.17 593.727 1147.08 594.066 1148.24 594.066C1149.07 594.066 1149.81 593.988 1150.47 593.832C1151.13 593.668 1151.82 593.43 1152.52 593.117V595.355C1151.87 595.66 1151.21 595.883 1150.54 596.023C1149.87 596.164 1149.06 596.234 1148.12 596.234C1146.85 596.234 1145.73 595.988 1144.76 595.496C1143.8 594.996 1143.05 594.254 1142.5 593.27C1141.96 592.285 1141.69 591.062 1141.69 589.602C1141.69 588.148 1141.94 586.914 1142.43 585.898C1142.92 584.883 1143.61 584.109 1144.5 583.578C1145.39 583.047 1146.43 582.781 1147.62 582.781ZM1147.62 584.855C1146.75 584.855 1146.05 585.137 1145.51 585.699C1144.98 586.262 1144.67 587.086 1144.57 588.172H1150.48C1150.47 587.523 1150.36 586.949 1150.15 586.449C1149.95 585.949 1149.64 585.559 1149.21 585.277C1148.8 584.996 1148.27 584.855 1147.62 584.855ZM1162.86 582.781C1163.07 582.781 1163.31 582.793 1163.57 582.816C1163.83 582.84 1164.05 582.871 1164.24 582.91L1163.98 585.488C1163.82 585.441 1163.61 585.406 1163.37 585.383C1163.14 585.359 1162.93 585.348 1162.74 585.348C1162.25 585.348 1161.78 585.43 1161.33 585.594C1160.89 585.75 1160.49 585.992 1160.15 586.32C1159.8 586.641 1159.54 587.043 1159.34 587.527C1159.14 588.012 1159.05 588.574 1159.05 589.215V596H1156.28V583.027H1158.44L1158.81 585.312H1158.94C1159.2 584.852 1159.52 584.43 1159.9 584.047C1160.29 583.664 1160.72 583.359 1161.21 583.133C1161.71 582.898 1162.26 582.781 1162.86 582.781ZM1178.12 589.484C1178.12 590.562 1177.98 591.52 1177.7 592.355C1177.42 593.191 1177.01 593.898 1176.47 594.477C1175.93 595.047 1175.29 595.484 1174.53 595.789C1173.77 596.086 1172.91 596.234 1171.96 596.234C1171.07 596.234 1170.25 596.086 1169.51 595.789C1168.77 595.484 1168.12 595.047 1167.58 594.477C1167.04 593.898 1166.62 593.191 1166.32 592.355C1166.03 591.52 1165.88 590.562 1165.88 589.484C1165.88 588.055 1166.12 586.844 1166.62 585.852C1167.12 584.852 1167.83 584.09 1168.75 583.566C1169.67 583.043 1170.77 582.781 1172.04 582.781C1173.24 582.781 1174.29 583.043 1175.21 583.566C1176.12 584.09 1176.84 584.852 1177.35 585.852C1177.87 586.852 1178.12 588.062 1178.12 589.484ZM1168.71 589.484C1168.71 590.43 1168.83 591.238 1169.05 591.91C1169.29 592.582 1169.65 593.098 1170.13 593.457C1170.62 593.809 1171.24 593.984 1172.01 593.984C1172.77 593.984 1173.4 593.809 1173.88 593.457C1174.37 593.098 1174.72 592.582 1174.95 591.91C1175.18 591.238 1175.29 590.43 1175.29 589.484C1175.29 588.539 1175.18 587.738 1174.95 587.082C1174.72 586.418 1174.37 585.914 1173.88 585.57C1173.4 585.219 1172.77 585.043 1172 585.043C1170.86 585.043 1170.02 585.426 1169.5 586.191C1168.98 586.957 1168.71 588.055 1168.71 589.484ZM1187.95 582.781C1189.48 582.781 1190.72 583.344 1191.65 584.469C1192.59 585.594 1193.05 587.266 1193.05 589.484C1193.05 590.953 1192.84 592.191 1192.4 593.199C1191.97 594.199 1191.36 594.957 1190.58 595.473C1189.81 595.98 1188.91 596.234 1187.88 596.234C1187.22 596.234 1186.65 596.148 1186.16 595.977C1185.68 595.805 1185.27 595.582 1184.92 595.309C1184.58 595.027 1184.29 594.723 1184.05 594.395H1183.89C1183.93 594.707 1183.96 595.055 1184 595.438C1184.04 595.812 1184.05 596.156 1184.05 596.469V601.754H1181.29V583.027H1183.54L1183.93 584.82H1184.05C1184.3 584.453 1184.59 584.113 1184.93 583.801C1185.29 583.488 1185.71 583.242 1186.2 583.062C1186.7 582.875 1187.28 582.781 1187.95 582.781ZM1187.21 585.031C1186.45 585.031 1185.84 585.184 1185.38 585.488C1184.93 585.785 1184.59 586.234 1184.38 586.836C1184.18 587.438 1184.07 588.191 1184.05 589.098V589.484C1184.05 590.445 1184.15 591.262 1184.35 591.934C1184.55 592.598 1184.88 593.105 1185.34 593.457C1185.81 593.801 1186.45 593.973 1187.24 593.973C1187.91 593.973 1188.47 593.789 1188.91 593.422C1189.35 593.055 1189.68 592.531 1189.9 591.852C1190.12 591.172 1190.23 590.371 1190.23 589.449C1190.23 588.051 1189.98 586.965 1189.48 586.191C1188.99 585.418 1188.23 585.031 1187.21 585.031ZM1204.96 592.297C1204.96 593.148 1204.75 593.867 1204.34 594.453C1203.93 595.039 1203.32 595.484 1202.52 595.789C1201.73 596.086 1200.77 596.234 1199.62 596.234C1198.71 596.234 1197.93 596.168 1197.27 596.035C1196.62 595.91 1196.01 595.715 1195.43 595.449V593.07C1196.05 593.359 1196.74 593.609 1197.51 593.82C1198.28 594.031 1199.01 594.137 1199.7 594.137C1200.61 594.137 1201.26 593.996 1201.66 593.715C1202.05 593.426 1202.25 593.043 1202.25 592.566C1202.25 592.285 1202.17 592.035 1202.01 591.816C1201.85 591.59 1201.55 591.359 1201.12 591.125C1200.69 590.883 1200.05 590.594 1199.22 590.258C1198.4 589.93 1197.71 589.602 1197.14 589.273C1196.58 588.945 1196.16 588.551 1195.87 588.09C1195.58 587.621 1195.43 587.023 1195.43 586.297C1195.43 585.148 1195.89 584.277 1196.79 583.684C1197.71 583.082 1198.91 582.781 1200.41 582.781C1201.21 582.781 1201.96 582.863 1202.66 583.027C1203.38 583.184 1204.07 583.414 1204.75 583.719L1203.88 585.793C1203.3 585.535 1202.71 585.324 1202.11 585.16C1201.53 584.988 1200.93 584.902 1200.32 584.902C1199.61 584.902 1199.07 585.012 1198.69 585.23C1198.32 585.449 1198.14 585.762 1198.14 586.168C1198.14 586.473 1198.23 586.73 1198.41 586.941C1198.59 587.152 1198.9 587.363 1199.34 587.574C1199.78 587.785 1200.4 588.047 1201.19 588.359C1201.96 588.656 1202.63 588.969 1203.19 589.297C1203.76 589.617 1204.2 590.012 1204.5 590.48C1204.81 590.949 1204.96 591.555 1204.96 592.297ZM1207.54 594.547C1207.54 593.906 1207.7 593.457 1208.03 593.199C1208.37 592.934 1208.77 592.801 1209.25 592.801C1209.73 592.801 1210.13 592.934 1210.47 593.199C1210.81 593.457 1210.98 593.906 1210.98 594.547C1210.98 595.172 1210.81 595.625 1210.47 595.906C1210.13 596.18 1209.73 596.316 1209.25 596.316C1208.77 596.316 1208.37 596.18 1208.03 595.906C1207.7 595.625 1207.54 595.172 1207.54 594.547ZM1217.28 583.027V596H1214.52V583.027H1217.28ZM1215.92 578.059C1216.34 578.059 1216.7 578.172 1217.01 578.398C1217.32 578.625 1217.48 579.016 1217.48 579.57C1217.48 580.117 1217.32 580.508 1217.01 580.742C1216.7 580.969 1216.34 581.082 1215.92 581.082C1215.48 581.082 1215.11 580.969 1214.8 580.742C1214.51 580.508 1214.36 580.117 1214.36 579.57C1214.36 579.016 1214.51 578.625 1214.8 578.398C1215.11 578.172 1215.48 578.059 1215.92 578.059ZM1232.71 589.484C1232.71 590.562 1232.57 591.52 1232.29 592.355C1232.01 593.191 1231.6 593.898 1231.06 594.477C1230.52 595.047 1229.87 595.484 1229.11 595.789C1228.36 596.086 1227.5 596.234 1226.55 596.234C1225.66 596.234 1224.84 596.086 1224.1 595.789C1223.36 595.484 1222.71 595.047 1222.16 594.477C1221.62 593.898 1221.21 593.191 1220.91 592.355C1220.61 591.52 1220.46 590.562 1220.46 589.484C1220.46 588.055 1220.71 586.844 1221.2 585.852C1221.7 584.852 1222.41 584.09 1223.34 583.566C1224.26 583.043 1225.36 582.781 1226.63 582.781C1227.82 582.781 1228.88 583.043 1229.79 583.566C1230.71 584.09 1231.42 584.852 1231.94 585.852C1232.45 586.852 1232.71 588.062 1232.71 589.484ZM1223.3 589.484C1223.3 590.43 1223.41 591.238 1223.64 591.91C1223.88 592.582 1224.23 593.098 1224.72 593.457C1225.2 593.809 1225.83 593.984 1226.59 593.984C1227.36 593.984 1227.98 593.809 1228.47 593.457C1228.95 593.098 1229.31 592.582 1229.54 591.91C1229.76 591.238 1229.88 590.43 1229.88 589.484C1229.88 588.539 1229.76 587.738 1229.54 587.082C1229.31 586.418 1228.95 585.914 1228.47 585.57C1227.98 585.219 1227.36 585.043 1226.58 585.043C1225.44 585.043 1224.61 585.426 1224.09 586.191C1223.56 586.957 1223.3 588.055 1223.3 589.484Z" fill="#1A1A1A"/>
<path d="M337.596 179.457L241.238 216.285C237.036 217.933 233.429 220.81 230.889 224.54C228.349 228.27 226.993 232.681 227 237.194V329.908L271.283 304.459V252.328L345.5 223.853V178C342.799 178.006 340.121 178.5 337.596 179.457Z" fill="#323232"/>
<path d="M272.068 387.085L345.5 344.763V293.642L232.045 359.057C230.518 359.952 229.25 361.229 228.365 362.762C227.48 364.295 227.01 366.032 227 367.802V402.051C227.038 406.526 228.414 410.887 230.952 414.573C233.489 418.26 237.072 421.102 241.238 422.735L337.596 459.563C340.121 460.521 342.799 461.015 345.5 461.021V415.168L272.068 387.085Z" fill="#323232"/>
<path d="M459.291 279.066C460.739 278.237 461.939 277.036 462.767 275.587C463.595 274.139 464.02 272.495 464 270.826V237.194C464.006 232.68 462.651 228.27 460.111 224.54C457.57 220.81 453.963 217.933 449.762 216.285L353.348 179.457C350.84 178.506 348.182 178.013 345.5 178V223.853L418.371 251.88L345.5 293.865V344.987L459.291 279.066Z" fill="#1A1A1A"/>
<path d="M353.348 459.563L449.762 422.735C453.928 421.102 457.51 418.259 460.048 414.573C462.585 410.887 463.961 406.526 464 402.051V308.384L419.716 333.945V386.804L345.5 415.168V461.021C348.182 461.008 350.84 460.514 353.348 459.563Z" fill="#1A1A1A"/>
<path d="M670 295.553L663.957 289.51L640 313.467L616.043 289.51L610 295.553L633.957 319.51L610 343.467L616.043 349.51L640 325.553L663.957 349.51L670 343.467L646.043 319.51L670 295.553Z" fill="#939393"/>
<path fill-rule="evenodd" clip-rule="evenodd" d="M920.048 195.072C910.414 199.916 890.104 209.347 879.102 216.871C868.1 224.395 869.468 231.404 864.651 236.248C859.833 241.093 845.382 253.204 835.747 260.47C826.113 267.737 828.521 287.114 826.113 294.38C823.704 301.647 818.887 318.602 816.478 325.868C814.07 333.135 821.296 342.823 826.113 352.512C830.93 362.201 842.973 388.844 847.79 398.533C852.607 408.222 867.059 403.377 879.102 413.066C891.145 422.755 908.005 434.865 920.048 442.132C932.091 449.398 936.909 449.398 948.952 442.132C960.995 434.865 977.855 422.755 989.898 413.066C1001.94 403.377 1016.39 408.222 1021.21 398.533C1026.03 388.844 1038.07 362.201 1042.89 352.512C1047.7 342.823 1054.93 333.135 1052.52 325.868C1050.11 318.602 1045.3 301.647 1042.89 294.38C1040.48 287.114 1042.89 267.737 1033.25 260.47C1023.62 253.204 1012.43 243.951 1004.35 236.248C996.264 228.546 999.532 224.138 989.898 216.871C980.263 209.605 958.586 199.916 948.952 195.072C939.317 190.227 929.683 190.227 920.048 195.072Z" fill="white"/>
<path fill-rule="evenodd" clip-rule="evenodd" d="M886.03 237.097L931.109 267.868C932.127 268.545 933.315 268.916 934.535 268.937C935.756 268.928 936.948 268.556 937.96 267.868L983.074 236.993C984.827 235.738 985.794 233.646 985.618 231.487C985.442 229.328 984.15 227.423 982.218 226.472L937.138 204.153C935.428 203.323 933.436 203.323 931.726 204.153L886.783 226.472C884.816 227.428 883.507 229.371 883.351 231.564C883.196 233.759 884.217 235.869 886.03 237.097ZM949.847 277.527C949.85 279.567 950.849 281.476 952.519 282.632L988.657 307.332C990.971 308.927 994.066 308.727 996.159 306.849L1026.48 279.734C1027.83 278.527 1028.58 276.779 1028.52 274.961C1028.47 273.143 1027.62 271.442 1026.2 270.317L997.256 247.17C995.152 245.498 992.217 245.387 989.993 246.894L952.519 272.525C950.879 273.66 949.884 275.523 949.847 277.527ZM859.962 311.126C861.422 312.438 862.173 314.374 861.983 316.335C861.793 318.309 860.654 320.062 858.934 321.027L837.353 333.963C835.166 335.271 832.404 335.082 830.411 333.489C828.419 331.896 827.61 329.23 828.379 326.788L836.36 301.674C836.986 299.685 838.573 298.151 840.573 297.604C842.572 297.022 844.727 297.532 846.26 298.949L859.962 311.126ZM977.011 313.748L937.995 287.048C935.921 285.653 933.217 285.653 931.143 287.048L892.127 313.748C890.575 314.822 889.592 316.548 889.455 318.44C889.354 320.344 890.109 322.194 891.51 323.476L930.492 358.352C931.617 359.355 933.067 359.907 934.569 359.905C936.07 359.904 937.519 359.352 938.645 358.352L977.627 323.476C979.033 322.199 979.779 320.342 979.649 318.44C979.54 316.548 978.565 314.815 977.011 313.748ZM872.944 306.849L842.663 279.734C841.3 278.497 840.548 276.717 840.608 274.87C840.64 273.05 841.483 271.341 842.903 270.214L871.848 246.928C873.967 245.262 876.908 245.15 879.144 246.652L916.585 272.283C918.323 273.423 919.371 275.37 919.371 277.458C919.371 279.546 918.323 281.493 916.585 282.632L880.48 307.332C878.153 308.92 875.053 308.721 872.944 306.849ZM1028.43 345.795L997.598 327.34C995.309 325.96 992.394 326.24 990.405 328.03L952.724 361.664C951.135 363.084 950.388 365.23 950.751 367.338C951.114 369.446 952.534 371.215 954.505 372.013L1006.78 393.194C1007.5 393.491 1008.26 393.644 1009.04 393.642C1011.47 393.65 1013.67 392.216 1014.66 389.986L1030.86 353.695C1032.18 350.823 1031.13 347.412 1028.43 345.795ZM1032.71 301.674L1040.69 326.788H1040.62C1041.21 328.666 1040.88 330.716 1039.72 332.304C1038.56 333.893 1036.72 334.829 1034.76 334.826C1033.67 334.829 1032.59 334.531 1031.65 333.963L1010.03 321.027C1008.35 320.042 1007.25 318.29 1007.09 316.335C1006.88 314.372 1007.64 312.432 1009.11 311.126L1022.81 298.915C1024.36 297.528 1026.5 297.021 1028.5 297.569C1030.49 298.14 1032.08 299.682 1032.71 301.674ZM918.366 367.321C918.735 365.222 917.996 363.081 916.414 361.664L878.734 328.03C876.744 326.24 873.829 325.96 871.54 327.34L840.71 345.795C838.041 347.419 836.985 350.787 838.244 353.661L854.481 389.951C855.826 392.977 859.304 394.393 862.359 393.159L914.598 371.978C916.57 371.187 917.995 369.426 918.366 367.321ZM936.864 377.67L978.792 394.643C980.842 395.52 982.259 397.448 982.492 399.679C982.757 401.938 981.754 404.158 979.888 405.44L937.926 434.59C936.92 435.296 935.726 435.681 934.5 435.693C933.275 435.674 932.083 435.29 931.075 434.59L889.147 405.44C887.274 404.161 886.259 401.943 886.509 399.679C886.789 397.425 888.256 395.499 890.346 394.643L932.274 377.67C933.748 377.082 935.39 377.082 936.864 377.67Z" fill="#BF4722"/>
</svg>
